fs/data_usage_toolbox_20_filled.svg

<svg viewBox="0 0 20 20" fill="none" xmlns="http://www.w3.org/2000/svg" height="1em" width="1em">
  <path d="M4 2C2.89543 2 2 2.89543 2 4V14C2 15.1046 2.89543 16 4 16H9V13.5C9 13.3279 9.01739 13.1598 9.05052 12.9975C9.03391 12.9991 9.01705 13 9 13C8.72386 13 8.5 12.7761 8.5 12.5V9.5C8.5 9.22386 8.72386 9 9 9C9.27614 9 9.5 9.22386 9.5 9.5V11.9998C9.86884 11.5088 10.4142 11.1581 11.0419 11.0419C11.1581 10.4141 11.5089 9.86866 12 9.49982V5.5C12 5.22386 12.2239 5 12.5 5C12.7761 5 13 5.22386 13 5.5V9.05001C13.1616 9.01722 13.3288 9 13.5 9H15.5C15.6712 9 15.8384 9.01722 16 9.05001V4C16 2.89543 15.1046 2 14 2H4ZM5 7.5C5 7.22386 5.22386 7 5.5 7C5.77614 7 6 7.22386 6 7.5V12.5C6 12.7761 5.77614 13 5.5 13C5.22386 13 5 12.7761 5 12.5V7.5ZM12 12V11.5C12 10.6716 12.6716 10 13.5 10H15.5C16.3284 10 17 10.6716 17 11.5V12H17.5C18.3284 12 19 12.6716 19 13.5V15H17V14.5C17 14.2239 16.7761 14 16.5 14C16.2239 14 16 14.2239 16 14.5V15H13V14.5C13 14.2239 12.7761 14 12.5 14C12.2239 14 12 14.2239 12 14.5V15H10V13.5C10 12.6716 10.6716 12 11.5 12H12ZM13 11.5V12H16V11.5C16 11.2239 15.7761 11 15.5 11H13.5C13.2239 11 13 11.2239 13 11.5ZM17 16H19V17.5C19 18.3284 18.3284 19 17.5 19H11.5C10.6716 19 10 18.3284 10 17.5V16H12V16.5C12 16.7761 12.2239 17 12.5 17C12.7761 17 13 16.7761 13 16.5V16H16V16.5C16 16.7761 16.2239 17 16.5 17C16.7761 17 17 16.7761 17 16.5V16Z" fill="#212121"/>
</svg>

<svg viewBox="0 0 20 20" fill="none" xmlns="http://www.w3.org/2000/svg" height="1em" width="1em">
  <path d="M4 2a2 2 0 0 0-2 2v10a2 2 0 0 0 2 2h5v-2.5c0-.172.017-.34.05-.502a.5.5 0 0 1-.55-.498v-3a.5.5 0 0 1 1 0V12a2.5 2.5 0 0 1 1.542-.958A2.5 2.5 0 0 1 12 9.5v-4a.5.5 0 0 1 1 0v3.55c.162-.033.329-.05.5-.05h2c.171 0 .338.017.5.05V4a2 2 0 0 0-2-2H4Zm1 5.5a.5.5 0 0 1 1 0v5a.5.5 0 0 1-1 0v-5Zm7 4.5v-.5a1.5 1.5 0 0 1 1.5-1.5h2a1.5 1.5 0 0 1 1.5 1.5v.5h.5a1.5 1.5 0 0 1 1.5 1.5V15h-2v-.5a.5.5 0 0 0-1 0v.5h-3v-.5a.5.5 0 0 0-1 0v.5h-2v-1.5a1.5 1.5 0 0 1 1.5-1.5h.5Zm1-.5v.5h3v-.5a.5.5 0 0 0-.5-.5h-2a.5.5 0 0 0-.5.5Zm4 4.5h2v1.5a1.5 1.5 0 0 1-1.5 1.5h-6a1.5 1.5 0 0 1-1.5-1.5V16h2v.5a.5.5 0 0 0 1 0V16h3v.5a.5.5 0 0 0 1 0V16Z" fill="#212121"/>
</svg>
